projects/more-shaders/santagirl/assets/images/icons/chat.svg

<?xml version="1.0" encoding="utf-8"?><!-- Uploaded to: SVG Repo, www.svgrepo.com, Generator: SVG Repo Mixer Tools -->
<svg width="800px" height="800px" viewBox="0 0 24 24" fill="none" xmlns="http://www.w3.org/2000/svg">
<path d="M8 10.5H16" stroke="#1C274C" stroke-width="1.5" stroke-linecap="round"/>
<path d="M8 14H13.5" stroke="#1C274C" stroke-width="1.5" stroke-linecap="round"/>
<path d="M17 3.33782C15.5291 2.48697 13.8214 2 12 2C6.47715 2 2 6.47715 2 12C2 13.5997 2.37562 15.1116 3.04346 16.4525C3.22094 16.8088 3.28001 17.2161 3.17712 17.6006L2.58151 19.8267C2.32295 20.793 3.20701 21.677 4.17335 21.4185L6.39939 20.8229C6.78393 20.72 7.19121 20.7791 7.54753 20.9565C8.88837 21.6244 10.4003 22 12 22C17.5228 22 22 17.5228 22 12C22 10.1786 21.513 8.47087 20.6622 7" stroke="#1C274C" stroke-width="1.5" stroke-linecap="round"/>
</svg>

<svg fill="none" viewBox="0 0 24 24" xmlns="http://www.w3.org/2000/svg"><path stroke="#1c274c" stroke-linecap="round" stroke-width="1.5" d="M8 10.5h8M8 14h5.5M17 3.338A9.95 9.95 0 0 0 12 2C6.477 2 2 6.477 2 12c0 1.6.376 3.112 1.043 4.453.178.356.237.763.134 1.148l-.595 2.226a1.3 1.3 0 0 0 1.591 1.592l2.226-.596a1.63 1.63 0 0 1 1.149.133A9.96 9.96 0 0 0 12 22c5.523 0 10-4.477 10-10 0-1.821-.487-3.53-1.338-5"/></svg>
